suite-common/icons/assets/icons/grid.svg

<svg xmlns="http://www.w3.org/2000/svg" viewBox="0 0 24 24">
  <path fill-rule="evenodd" d="M5.057 4.034c-.355.023-.428.041-.6.147a1 1 0 0 0-.329.34l-.131.219.011 2.9c.011 2.559.02 2.916.076 3.04.073.16.384.46.546.528.078.032.973.051 3.037.063l2.926.018.207-.113c.226-.123.357-.259.492-.511l.088-.165V4.78l-.108-.205a1.04 1.04 0 0 0-.499-.48c-.1-.042-.683-.057-2.72-.07-1.426-.009-2.775-.005-2.996.009m8.701.002c-.394.019-.527.04-.62.099a1.05 1.05 0 0 0-.412.445l-.106.2-.013 2.52c-.007 1.386.004 2.703.024 2.927.034.371.049.424.175.6.078.109.233.251.356.326l.218.133 2.94-.016c2.098-.012 2.972-.03 3.051-.063.175-.072.5-.4.557-.561.079-.221.076-5.799-.003-6.022-.072-.203-.355-.485-.551-.547-.168-.054-4.661-.087-5.616-.041m-8.343 8.719-.764.025-.199.135c-.275.189-.37.343-.417.683-.024.172-.035 1.35-.027 2.974.011 2.36.02 2.705.076 2.828.099.217.26.385.467.487l.189.093H7.7c3.328 0 3.046.026 3.397-.311.292-.281.283-.181.283-3.309 0-2.17-.011-2.818-.052-2.952-.065-.216-.282-.459-.501-.563-.159-.076-.272-.081-2.407-.097-1.232-.01-2.584-.007-3.005.007m8.565 0c-.799.028-.877.051-1.136.346-.225.257-.224.236-.224 3.259 0 3.128-.009 3.028.283 3.309.351.337.069.311 3.397.311h2.96l.189-.093a1 1 0 0 0 .467-.487c.057-.124.064-.463.064-2.98 0-1.562-.015-2.909-.032-2.992-.038-.181-.255-.434-.485-.567l-.163-.095-2.3-.018c-1.265-.01-2.624-.007-3.02.007"/>
</svg>

<svg xmlns="http://www.w3.org/2000/svg" viewBox="0 0 24 24"><path d="M5.057 4.034 C 4.702 4.057,4.629 4.075,4.457 4.181 C 4.324 4.263,4.217 4.374,4.128 4.521 L 3.997 4.740 4.008 7.640 C 4.019 10.199,4.028 10.556,4.084 10.680 C 4.157 10.840,4.468 11.140,4.630 11.208 C 4.708 11.240,5.603 11.259,7.667 11.271 L 10.593 11.289 10.800 11.176 C 11.026 11.053,11.157 10.917,11.292 10.665 L 11.380 10.500 11.380 7.640 L 11.380 4.780 11.272 4.575 C 11.155 4.353,10.974 4.179,10.773 4.095 C 10.673 4.053,10.090 4.038,8.053 4.025 C 6.627 4.016,5.278 4.020,5.057 4.034 M13.758 4.036 C 13.364 4.055,13.231 4.076,13.138 4.135 C 12.937 4.264,12.836 4.373,12.726 4.580 L 12.620 4.780 12.607 7.300 C 12.600 8.686,12.611 10.003,12.631 10.227 C 12.665 10.598,12.680 10.651,12.806 10.827 C 12.884 10.936,13.039 11.078,13.162 11.153 L 13.380 11.286 16.320 11.270 C 18.418 11.258,19.292 11.240,19.371 11.207 C 19.546 11.135,19.871 10.807,19.928 10.646 C 20.007 10.425,20.004 4.847,19.925 4.624 C 19.853 4.421,19.570 4.139,19.374 4.077 C 19.206 4.023,14.713 3.990,13.758 4.036 M5.415 12.755 L 4.651 12.780 4.452 12.915 C 4.177 13.104,4.082 13.258,4.035 13.598 C 4.011 13.770,4.000 14.948,4.008 16.572 C 4.019 18.932,4.028 19.277,4.084 19.400 C 4.183 19.617,4.344 19.785,4.551 19.887 L 4.740 19.980 7.700 19.980 C 11.028 19.980,10.746 20.006,11.097 19.669 C 11.389 19.388,11.380 19.488,11.380 16.360 C 11.380 14.190,11.369 13.542,11.328 13.408 C 11.263 13.192,11.046 12.949,10.827 12.845 C 10.668 12.769,10.555 12.764,8.420 12.748 C 7.188 12.738,5.836 12.741,5.415 12.755 M13.980 12.755 C 13.181 12.783,13.103 12.806,12.844 13.101 C 12.619 13.358,12.620 13.337,12.620 16.360 C 12.620 19.488,12.611 19.388,12.903 19.669 C 13.254 20.006,12.972 19.980,16.300 19.980 L 19.260 19.980 19.449 19.887 C 19.656 19.785,19.817 19.617,19.916 19.400 C 19.973 19.276,19.980 18.937,19.980 16.420 C 19.980 14.858,19.965 13.511,19.948 13.428 C 19.910 13.247,19.693 12.994,19.463 12.861 L 19.300 12.766 17.000 12.748 C 15.735 12.738,14.376 12.741,13.980 12.755 " stroke="none" fill-rule="evenodd" fill="black"></path></svg>
